images/zood-logo.svg

<svg width="312px" height="151px" viewBox="0 0 312 151" version="1.1" xmlns="http://www.w3.org/2000/svg" xmlns:xlink="http://www.w3.org/1999/xlink">
    <g id="Page-10" stroke="none" stroke-width="1" fill="none" fill-rule="evenodd">
        <g id="zood-identity-v1" transform="translate(-456.000000, -275.000000)">
            <g id="Group-357" transform="translate(456.000000, 275.000000)">
                <path d="M263.9118,61.3643 C277.3418,61.3643 288.2668,72.2903 288.2668,85.7203 C288.2668,99.1503 277.3418,110.0743 263.9118,110.0743 C250.4818,110.0743 239.5568,99.1503 239.5568,85.7203 C239.5568,72.2903 250.4818,61.3643 263.9118,61.3643 M263.9118,133.3423 C272.8068,133.3423 281.1358,130.8853 288.2668,126.6223 L288.2668,134.0183 L311.5338,134.0183 L311.5338,0.3803 L288.2668,0.3803 L288.2668,44.8173 C281.1358,40.5543 272.8068,38.0973 263.9118,38.0973 C237.6528,38.0973 216.2888,59.4613 216.2888,85.7203 C216.2888,111.9793 237.6528,133.3423 263.9118,133.3423" id="Fill-343" fill="#46585E"></path>
                <path d="M147.6164,117.1793 C144.7624,113.1913 143.0764,108.3133 143.0764,103.0463 C143.0764,99.6743 143.7654,96.4613 145.0104,93.5383 C142.0874,94.7823 138.8744,95.4713 135.5034,95.4713 C130.2364,95.4713 125.3574,93.7853 121.3684,90.9313 C120.3544,94.8003 119.8094,98.8583 119.8094,103.0453 C119.8094,107.8043 120.5164,112.3963 121.8154,116.7323 C126.1524,118.0323 130.7434,118.7393 135.5034,118.7393 C139.6894,118.7393 143.7474,118.1943 147.6164,117.1793 M167.4314,55.4233 C172.1914,55.4233 176.7834,56.1293 181.1194,57.4293 C182.4184,61.7653 183.1254,66.3573 183.1254,71.1163 C183.1254,75.3033 182.5804,79.3613 181.5664,83.2293 C177.5774,80.3763 172.6994,78.6903 167.4324,78.6903 C164.0614,78.6903 160.8474,79.3793 157.9254,80.6233 C159.1694,77.7003 159.8584,74.4883 159.8584,71.1163 C159.8584,65.8493 158.1724,60.9713 155.3184,56.9823 C159.1864,55.9673 163.2454,55.4233 167.4314,55.4233" id="Fill-345" fill="#46585E"></path>
                <polygon id="Fill-347" fill="#46585E" points="86.6457 40.1422 72.9047 40.1422 0.4657 40.1422 0.4657 62.6712 0.4657 63.4092 47.5617 63.4092 0.4657 121.8152 0.4657 134.0192 14.2077 134.0192 86.6457 134.0192 86.6457 111.4872 86.6457 110.7512 39.5487 110.7512 86.6457 52.3462"></polygon>
                <path d="M157.9255,80.6231 C159.1695,77.7011 159.8585,74.4881 159.8585,71.1171 C159.8585,65.8491 158.1725,60.9711 155.3185,56.9821 C138.7535,61.3271 125.7135,74.3671 121.3685,90.9321 C125.3585,93.7851 130.2365,95.4721 135.5035,95.4721 C138.8745,95.4721 142.0875,94.7821 145.0095,93.5391 C147.4775,87.7421 152.1285,83.0901 157.9255,80.6231" id="Fill-349" fill="#E41C16"></path>
                <path d="M181.1193,57.4288 C182.4183,61.7648 183.1253,66.3578 183.1253,71.1168 C183.1253,75.3028 182.5803,79.3618 181.5663,83.2298 C187.7473,87.6518 191.7873,94.8838 191.7873,103.0458 C191.7873,116.4758 180.8623,127.4008 167.4323,127.4008 C159.2703,127.4008 152.0373,123.3608 147.6163,117.1788 C143.7473,118.1938 139.6893,118.7388 135.5033,118.7388 C130.7443,118.7388 126.1523,118.0318 121.8153,116.7328 C127.6973,136.3608 145.8903,150.6678 167.4313,150.6678 C193.7333,150.6678 215.0543,129.3458 215.0543,103.0448 C215.0543,81.5028 200.7473,63.3108 181.1193,57.4288" id="Fill-351" fill="#E41C16"></path>
                <path d="M145.0099,93.5387 C143.7659,96.4617 143.0769,99.6747 143.0769,103.0457 C143.0769,108.3127 144.7629,113.1907 147.6159,117.1797 C164.1809,112.8347 177.2209,99.7947 181.5659,83.2297 C177.5769,80.3757 172.6999,78.6897 167.4319,78.6897 C164.0609,78.6897 160.8479,79.3797 157.9259,80.6227 C155.4589,86.4197 150.8069,91.0717 145.0099,93.5387" id="Fill-353" fill="#5CD1FF"></path>
                <path d="M119.8093,103.045 C119.8093,98.858 120.3543,94.8 121.3693,90.932 C115.1873,86.51 111.1473,79.279 111.1473,71.117 C111.1473,57.687 122.0743,46.761 135.5033,46.761 C143.6653,46.761 150.8973,50.801 155.3183,56.982 C159.1873,55.967 163.2453,55.423 167.4323,55.423 C172.1913,55.423 176.7833,56.129 181.1193,57.429 C175.2383,37.801 157.0453,23.494 135.5033,23.494 C109.2023,23.494 87.8803,44.815 87.8803,71.116 C87.8803,92.658 102.1883,110.851 121.8153,116.733 C120.5163,112.397 119.8093,107.804 119.8093,103.045" id="Fill-355" fill="#5CD1FF"></path>
            </g>
        </g>
    </g>
</svg>

<svg width="312" height="151" xmlns="http://www.w3.org/2000/svg"><g fill="none" fill-rule="evenodd"><path d="M263.912 61.364c13.43 0 24.355 10.926 24.355 24.356 0 13.43-10.925 24.354-24.355 24.354S239.557 99.15 239.557 85.72s10.925-24.356 24.355-24.356m0 71.978a47.317 47.317 0 0 0 24.355-6.72v7.396h23.267V.38h-23.267v44.437a47.317 47.317 0 0 0-24.355-6.72c-26.26 0-47.623 21.364-47.623 47.623 0 26.26 21.364 47.622 47.623 47.622M147.616 117.18a24.206 24.206 0 0 1-4.54-14.133c0-3.372.69-6.585 1.934-9.508a24.22 24.22 0 0 1-9.507 1.933 24.214 24.214 0 0 1-14.135-4.54 47.716 47.716 0 0 0-1.559 12.114c0 4.76.707 9.351 2.006 13.687a47.586 47.586 0 0 0 13.688 2.007 47.67 47.67 0 0 0 12.113-1.56m19.815-61.756c4.76 0 9.352.706 13.688 2.006a47.613 47.613 0 0 1 2.006 13.687c0 4.187-.545 8.245-1.559 12.113a24.217 24.217 0 0 0-14.134-4.539c-3.37 0-6.585.69-9.507 1.933a24.216 24.216 0 0 0 1.933-9.507 24.211 24.211 0 0 0-4.54-14.134 47.664 47.664 0 0 1 12.113-1.559" fill="#46585E"/><path fill="#46585E" d="M86.6457 40.1422L72.9047 40.1422 0.4657 40.1422 0.4657 62.6712 0.4657 63.4092 47.5617 63.4092 0.4657 121.8152 0.4657 134.0192 14.2077 134.0192 86.6457 134.0192 86.6457 111.4872 86.6457 110.7512 39.5487 110.7512 86.6457 52.3462z"/><path d="M157.925 80.623a24.211 24.211 0 0 0 1.933-9.506 24.212 24.212 0 0 0-4.54-14.135c-16.565 4.345-29.605 17.385-33.95 33.95a24.224 24.224 0 0 0 14.136 4.54c3.37 0 6.584-.69 9.506-1.933a24.502 24.502 0 0 1 12.916-12.916" fill="#E41C16"/><path d="M181.12 57.429a47.62 47.62 0 0 1 2.005 13.688c0 4.186-.545 8.245-1.559 12.113 6.181 4.422 10.221 11.654 10.221 19.816 0 13.43-10.925 24.355-24.355 24.355-8.162 0-15.395-4.04-19.816-10.222a47.67 47.67 0 0 1-12.113 1.56c-4.759 0-9.35-.707-13.688-2.006 5.882 19.628 24.075 33.935 45.616 33.935 26.302 0 47.623-21.322 47.623-47.623 0-21.542-14.307-39.734-33.935-45.616" fill="#E41C16"/><path d="M145.01 93.539a24.22 24.22 0 0 0-1.933 9.507 24.217 24.217 0 0 0 4.539 14.134c16.565-4.345 29.605-17.385 33.95-33.95a24.209 24.209 0 0 0-14.134-4.54c-3.371 0-6.584.69-9.506 1.933a24.499 24.499 0 0 1-12.916 12.916m-25.2 9.506c0-4.187.544-8.245 1.56-12.113-6.183-4.422-10.223-11.653-10.223-19.815 0-13.43 10.927-24.356 24.356-24.356 8.162 0 15.394 4.04 19.815 10.221a47.671 47.671 0 0 1 12.114-1.559c4.76 0 9.351.706 13.687 2.006-5.88-19.628-24.074-33.935-45.616-33.935-26.3 0-47.623 21.321-47.623 47.622 0 21.542 14.308 39.735 33.935 45.617a47.62 47.62 0 0 1-2.006-13.688" fill="#5CD1FF"/></g></svg>
